X: 178
T: Going up to Hamburg
B: canberra pickers and fiddlers
B: old time tunes update
B: tunes
M:C|
L:1/8
Q: 1/4=100
K:G
V:1 
(_B-|=B2) AG E2E2|GGAG E2E2|{_B}=B2 AG E2E2|GG+slide+BG D2D2|
B2 AG E2E2|GGAG E2E2|{_B}=B2 AG E2E2|GG+slide+BG D2D2||
B2 Ad B2d2|e2g2e2g2|g2 ed B2d2|edBA G4-|
GBAd B2d2|e2g2e2g2|g2 ed B2d2|edBA G4|
+slide+[e8e8]|[e2e2][B4B4]||
% abcbook-tune_id 67a7d9eca6be61a6e15ee180
% abcbook-tune_composer_id 
% abcbook-link-0 https://www.youtube.com/watch?v=DenTso2Fl78
% abcbook-link-title-0 Going up to Hamburg - Interstate Express (official video)
% abcbook-boost 0
% abcbook-difficulty 0
% abcbook-tags old time tunes
% abcbook-tablature 
% abcbook-transpose 
% abcbook-tuning GDAD
% abcbook-lastupdated 1739095536759
% abcbook-src-url 
% abcbook-soundfonts 
% abcbook-repeats 1


